lib/brands/icons/ms-power-virtual-agents.svg

<svg xmlns="http://www.w3.org/2000/svg" fill="none" aria-hidden="true" viewBox="0 0 46 51"><g id="ms-power-virtual-agents-Icon"><g id="Group"><mask id="mask0_94_18860" width="38" height="37" x="4" y="7" maskUnits="userSpaceOnUse" style="mask-type:alpha"><g id="mask0"><path id="Vector" fill="white" d="M32.376 27.4867C32.376 26.6217 33.0773 25.9204 33.9424 25.9204H40.2326C41.0969 25.9204 41.7979 25.2203 41.7989 24.356L41.818 8.69263C41.8191 7.82682 41.1175 7.12439 40.2517 7.12439H15.1463C14.2813 7.12439 13.58 7.82566 13.58 8.69072V16.5224H5.74798C4.8829 16.5224 4.18162 17.2237 4.18164 18.0888L4.18196 33.7521C4.18198 34.6172 4.88324 35.3184 5.74829 35.3184H12.0137C12.8787 35.3184 13.58 36.0197 13.58 36.8848V41.8803C13.58 42.9269 14.8454 43.4511 15.5854 42.711L22.5192 35.7772C22.813 35.4834 23.2114 35.3184 23.6268 35.3184H30.8097C31.6747 35.3184 32.376 34.6171 32.376 33.7521V27.4867Z"/></g></mask><g mask="url(#mask0_94_18860)"><g id="Group_2"><path id="Vector_2" fill="url(#paint0_linear_94_18860)" fill-rule="evenodd" d="M4.18164 16.5225L4.18202 35.3185H12.0137C12.8787 35.3185 13.58 36.0198 13.58 36.8849V44.7166L22.5193 35.7773C22.813 35.4836 23.2114 35.3185 23.6269 35.3185H32.3761L32.3759 18.0889C32.3759 17.2238 31.6746 16.5225 30.8096 16.5225H4.18164Z" clip-rule="evenodd"/><g id="Group_3" filter="url(#filter0_f_94_18860)"><path id="Vector_3" fill="black" fill-opacity="0.32" fill-rule="evenodd" d="M41.82 7.90753L41.7742 26.7035H33.9427C33.0776 26.7035 32.3764 27.4048 32.3764 28.2698L32.3763 33.2655C32.3763 34.3121 31.1109 34.8362 30.3708 34.0962L23.437 27.1623C23.1433 26.8686 22.7449 26.7035 22.3294 26.7035H15.1464C14.2814 26.7035 13.5801 26.0023 13.5801 25.1372V17.3055V7.90753H41.82Z" clip-rule="evenodd"/></g><g id="Group_4" filter="url(#filter1_f_94_18860)"><path id="Vector_4" fill="black" fill-opacity="0.24" fill-rule="evenodd" d="M41.82 7.27313L41.7742 26.0692H33.9427C33.0776 26.0692 32.3764 26.7704 32.3764 27.6354L32.3763 32.6311C32.3763 33.6777 31.1109 34.2018 30.3708 33.4618L23.437 26.5279C23.1433 26.2342 22.7449 26.0692 22.3294 26.0692H15.1464C14.2814 26.0692 13.5801 25.3679 13.5801 24.5028V16.6711V7.27313H41.82Z" clip-rule="evenodd"/></g><path id="Vector_5" fill="url(#paint1_linear_94_18860)" fill-rule="evenodd" d="M41.82 7.12439L41.7742 25.9204H33.9427C33.0776 25.9204 32.3764 26.6217 32.3764 27.4867L32.3763 32.4824C32.3763 33.529 31.1109 34.0531 30.3708 33.313L23.437 26.3792C23.1433 26.0854 22.7449 25.9204 22.3294 25.9204H15.1464C14.2814 25.9204 13.5801 25.2191 13.5801 24.3541V16.5224V7.12439H41.82Z" clip-rule="evenodd"/><path id="Vector_6" fill="#4CCBED" d="M41.7741 7.12439H13.5801V13.3897H41.7741V7.12439Z"/><path id="Vector_7" fill="#17AAD2" d="M41.7741 13.3897H13.5801V19.655H41.7741V13.3897Z"/></g></g></g></g><defs><filter id="filter0_f_94_18860" width="44.2397" height="42.5351" x="5.58008" y="-0.0924683" color-interpolation-filters="sRGB" filterUnits="userSpaceOnUse"><feFlood flood-opacity="0" result="BackgroundImageFix"/><feBlend in="SourceGraphic" in2="BackgroundImageFix" result="shape"/><feGaussianBlur result="effect1_foregroundBlur_94_18860" stdDeviation="4"/></filter><filter id="filter1_f_94_18860" width="29.7597" height="28.0551" x="12.8201" y="6.51313" color-interpolation-filters="sRGB" filterUnits="userSpaceOnUse"><feFlood flood-opacity="0" result="BackgroundImageFix"/><feBlend in="SourceGraphic" in2="BackgroundImageFix" result="shape"/><feGaussianBlur result="effect1_foregroundBlur_94_18860" stdDeviation="0.38"/></filter><linearGradient id="paint0_linear_94_18860" x1="8.48944" x2="26.1107" y1="16.5225" y2="50.5903" gradientUnits="userSpaceOnUse"><stop stop-color="#117B97"/><stop offset="1" stop-color="#0A4A5C"/></linearGradient><linearGradient id="paint1_linear_94_18860" x1="27.6771" x2="39.4246" y1="14.9561" y2="42.7585" gradientUnits="userSpaceOnUse"><stop stop-color="#1392B4"/><stop offset="1" stop-color="#117B97"/></linearGradient></defs></svg>

<svg xmlns="http://www.w3.org/2000/svg" fill="none" aria-hidden="true" viewBox="0 0 46 51"><mask id="a" width="38" height="37" x="4" y="7" maskUnits="userSpaceOnUse" style="mask-type:alpha"><path fill="#fff" d="M32.376 27.487c0-.865.701-1.567 1.567-1.567h6.29c.864 0 1.565-.7 1.566-1.564l.02-15.663a1.566 1.566 0 0 0-1.567-1.569H15.146c-.865 0-1.566.702-1.566 1.567v7.831H5.748c-.865 0-1.566.702-1.566 1.567v15.663c0 .865.701 1.566 1.566 1.566h6.266c.865 0 1.566.702 1.566 1.567v4.995c0 1.047 1.265 1.571 2.005.831l6.934-6.934a1.566 1.566 0 0 1 1.108-.459h7.183c.865 0 1.566-.7 1.566-1.566v-6.265Z"/></mask><g mask="url(#a)"><path fill="url(#b)" fill-rule="evenodd" d="M4.182 16.523v18.796h7.832c.865 0 1.566.7 1.566 1.566v7.832l8.94-8.94a1.566 1.566 0 0 1 1.107-.459h8.75l-.001-17.23c0-.864-.701-1.566-1.566-1.566H4.182Z" clip-rule="evenodd"/><g filter="url(#c)"><path fill="#000" fill-opacity=".32" fill-rule="evenodd" d="m41.82 7.908-.046 18.795h-7.831c-.865 0-1.567.702-1.567 1.567v4.996c0 1.046-1.265 1.57-2.005.83l-6.934-6.934a1.566 1.566 0 0 0-1.108-.459h-7.183a1.566 1.566 0 0 1-1.566-1.566V7.908h28.24Z" clip-rule="evenodd"/></g><g filter="url(#d)"><path fill="#000" fill-opacity=".24" fill-rule="evenodd" d="m41.82 7.273-.046 18.796h-7.831c-.865 0-1.567.701-1.567 1.566v4.996c0 1.047-1.265 1.57-2.005.83l-6.934-6.933a1.566 1.566 0 0 0-1.108-.459h-7.183a1.566 1.566 0 0 1-1.566-1.566V7.273h28.24Z" clip-rule="evenodd"/></g><path fill="url(#e)" fill-rule="evenodd" d="m41.82 7.124-.046 18.796h-7.831c-.865 0-1.567.702-1.567 1.567v4.995c0 1.047-1.265 1.571-2.005.831l-6.934-6.934a1.566 1.566 0 0 0-1.108-.459h-7.183a1.566 1.566 0 0 1-1.566-1.566V7.124h28.24Z" clip-rule="evenodd"/><path fill="#4CCBED" d="M41.774 7.124H13.58v6.266h28.194V7.124Z"/><path fill="#17AAD2" d="M41.774 13.39H13.58v6.265h28.194V13.39Z"/></g><defs><linearGradient id="b" x1="8.49" x2="26.111" y1="16.523" y2="50.59" gradientUnits="userSpaceOnUse"><stop stop-color="#117B97"/><stop offset="1" stop-color="#0A4A5C"/></linearGradient><linearGradient id="e" x1="27.677" x2="39.425" y1="14.956" y2="42.758" gradientUnits="userSpaceOnUse"><stop stop-color="#1392B4"/><stop offset="1" stop-color="#117B97"/></linearGradient><filter id="c" width="44.24" height="42.535" x="5.58" y="-.092" color-interpolation-filters="sRGB" filterUnits="userSpaceOnUse"><feFlood flood-opacity="0" result="BackgroundImageFix"/><feBlend in="SourceGraphic" in2="BackgroundImageFix" result="shape"/><feGaussianBlur result="effect1_foregroundBlur_5_1113" stdDeviation="4"/></filter><filter id="d" width="29.76" height="28.055" x="12.82" y="6.513" color-interpolation-filters="sRGB" filterUnits="userSpaceOnUse"><feFlood flood-opacity="0" result="BackgroundImageFix"/><feBlend in="SourceGraphic" in2="BackgroundImageFix" result="shape"/><feGaussianBlur result="effect1_foregroundBlur_5_1113" stdDeviation=".38"/></filter></defs></svg>
